app/assets/images/svg/icon_bcourses_256x256.svg

<svg xmlns="http://www.w3.org/2000/svg" width="256" height="256" viewBox="0 0 256 256"><g fill="#808080"><path d="M163.6 4.8c-21.9-6.1-46.3-6.6-70.7 0 0 24.2 15.7 50.7 35.1 50.7 19.6 0 35.6-26.5 35.6-50.7zM127.5 200.5c-19.4 0-35.1 26.5-35.1 50.7 24.5 6.6 48.9 6.1 70.7 0 .1-24.2-15.9-50.7-35.6-50.7zM240.3 66.1c-11.2-19.8-28.1-37.4-50-50-17.2 17.2-24.8 47-11 60.7 13.9 13.9 43.9 6.4 61-10.7zM76.4 179c-13.7-13.7-43.6-6.1-60.7 11 12.7 21.9 30.2 38.9 50 50 17.2-17 24.6-47 10.7-61zM251.2 163.7c6.1-21.9 6.6-46.3 0-70.7-24.2 0-50.7 15.7-50.7 35.1 0 19.6 26.5 35.6 50.7 35.6zM55.5 127.6c0-19.4-26.5-35.1-50.7-35.1-6.6 24.5-6.1 48.9 0 70.7 24.2.1 50.7-15.9 50.7-35.6zM190 240.4c19.8-11.2 37.4-28.1 50-50-17.2-17.2-47-24.8-60.7-11-13.9 13.8-6.5 43.8 10.7 61zM77 76.5c13.7-13.7 6.1-43.6-11-60.7-21.9 12.6-38.9 30.2-50 50 17.1 17.2 47.1 24.6 61 10.7z"/></g></svg>

<?xml version="1.0" encoding="utf-8"?>
<!DOCTYPE svg PUBLIC "-//W3C//DTD SVG 1.1//EN" "http://www.w3.org/Graphics/SVG/1.1/DTD/svg11.dtd">
<svg version="1.1" xmlns="http://www.w3.org/2000/svg" xmlns:xlink="http://www.w3.org/1999/xlink" x="0px" y="0px" width="256px" height="256px" viewBox="0 0 256 256" enable-background="new 0 0 256 256" xml:space="preserve">
<g>
  <path fill="#808080" d="M163.6,4.8c-21.9-6.1-46.3-6.6-70.7,0c0,24.2,15.7,50.7,35.1,50.7
    C147.6,55.5,163.6,29,163.6,4.8z"/>
  <path fill="#808080" d="M127.5,200.5c-19.4,0-35.1,26.5-35.1,50.7c24.5,6.6,48.9,6.1,70.7,0
    C163.2,227,147.2,200.5,127.5,200.5z"/>
  <path fill="#808080" d="M240.3,66.1c-11.2-19.8-28.1-37.4-50-50c-17.2,17.2-24.8,47-11,60.7
    C193.2,90.7,223.2,83.2,240.3,66.1z"/>
  <path fill="#808080" d="M76.4,179c-13.7-13.7-43.6-6.1-60.7,11c12.7,21.9,30.2,38.9,50,50
    C82.9,223,90.3,193,76.4,179z"/>
  <path fill="#808080" d="M251.2,163.7c6.1-21.9,6.6-46.3,0-70.7c-24.2,0-50.7,15.7-50.7,35.1
    C200.5,147.7,227,163.7,251.2,163.7z"/>
  <path fill="#808080" d="M55.5,127.6c0-19.4-26.5-35.1-50.7-35.1c-6.6,24.5-6.1,48.9,0,70.7
    C29,163.3,55.5,147.3,55.5,127.6z"/>
  <path fill="#808080" d="M190,240.4c19.8-11.2,37.4-28.1,50-50c-17.2-17.2-47-24.8-60.7-11
    C165.4,193.2,172.8,223.2,190,240.4z"/>
  <path fill="#808080" d="M77,76.5c13.7-13.7,6.1-43.6-11-60.7C44.1,28.4,27.1,46,16,65.8C33.1,83,63.1,90.4,77,76.5
    z"/>
</g>
</svg>
